X:1
T:James Gibb editions
T:Psalm 73 (Becker) - Schütz
%%score [ ( 1 2 ) ( 3 4 ) ]
L:1/8
Q:1/4=100
M:2/2
K:D
V:1 treble nm="Soprano Alto"
V:2 treble 
V:3 bass nm="Tenor Bass"
V:4 bass 
V:1
"^Cornelius Becker\n(1561-1604)""^Psalm 73, SWV 170""^Heinrich Schütz\n(1585-1672)" E4 E2 B2 | %1
w: ~Den- noch hat|
w: der Hul- de|
 A2 d2 (B>AB)G | F2 G2 A2 B2 | =c2 d2 (AG A2) | G4 :|[M:2/2] B4 A2 A2 | d2 d2 c2 B2 | c4 d4 | %8
w: Is- ra- el * * zum|Trost all- zeit Gott|sei- nen Her\- * *|ren,|mein Fuß hätt|schier ge- strau- chelt|mit, ge-|
w: Got- tes wohl * * ge-|noß, wer ihn von|Her- zen eh\- * *|ret,||||
 e2 c2 d2 B2 | (=cd) B2 A4 | B4 d2 =c2 | B2 G2 (FE F2) | E8 |] %13
w: glit- ten wär viel|nach * mein Tritt,|ich hätt mich|schier ver- schul\- * *|det.|
w: |||||
V:2
 B,4 B,2 D2 | C2 F2 (D>FD)E | ^D2 E2 F2 =D2 | E2 D2 (DB, D2) | D4 :|[M:2/2] G4 F2 E2 | %6
 D2 F2 F2 D2 | F4 F4 | G2 E2 F2 D2 | (E G2) (F/E/) F4 | G4 B2 A2 | F2 E2 (!courtesy!^C E2 ^D) | %12
 E8 |] %13
V:3
 G,4 G,2 F,2 | F,2 A,2 (G,>DB,)B, | B,2 B,2 D2 B,2 | G,2 G,2 (F, G,2 F,) | G,4 :| %5
[M:2/2] D4 D2 A,2 | F,2 B,2 ^A,2 B,2 | ^A,4 B,4 | B,2 A,2 A,2 G,2 | %9
"^2. Die Gottlosen des Ruhms sind voll,\ndas bracht mir große Schmerzen,\nwas sie anfahn, gelinget wohl, \nsolchs mich verdroß im Herzen, \nsie sind in keiner Todesg'fahr, \nsie stehen fest, prächtig fürwahr, \ngleichwie ein schön Palaste.\n\n3. Wann and're Leut in Unglück sind,\nhaben sie guten Friede, \nzu ihnen keine Plag sich find't \ndie sonst viel Leut betrübet, \nihr Tun und Frevel muß bestehn, \nals wenns vom hohen Himmel käm, \nes muß gelten auf Erden.\n\n6. Wie kommts denn, daß der gottlos Häuf \nist glückselig auf Erden, \ner ist reich und hat alls vollauf, \nsolls denn immer so währen? \nSolls denn umsonst sein, daß mein Herz\nunsträflich lebt und ich voll Schmerz\nmein Händ in Unschuld wasche?" (G,B,) D2 D4 | %10
 D4 B,2"^8. Ich dacht ihm nach je läng'r je mehr,\nob ichs doch möcht ergründen, \nes ward mir aber viel zu schwer, \nkonnt mich darein nicht finden, \nbis daß ich ging ins Heiligtum \nund fragt mein lieben Gott hierum \nund merket auf ihr Ende.\n\n11. Nach deinem Rat, Herr, leit'st du mich, \nbringst mich endlich zu Ehren,\nwenn ich nur dich hab, frag ich nicht\nnach Himmel und nach Erden, \nwenn mir gleich Leib und Seel verschmacht, \nbist du doch allzeit meine Macht, \nmein Teil und Trost meins Herzen.\n\n12. Die von dir weichen, leben nicht, \ndu bringst um mit Herzleide \nja alle, die verachten dich, \ndies aber ist mein Freude, \ndaß ich mich halt zu meinem Gott, \nder Herr, Herr, ist mein Trost, mein Hort, \nsein Tun allein ich rühme." E2 | %11
 D2 B,2 (A,G, B,2) | B,8 |] %13
V:4
 E,4 E,2 B,,2 | F,2 D,2 (G,>F,G,)E, | B,,2 E,2 D,2 G,2 | =C,2 B,,2 (D,E, D,2) | G,,4 :| %5
[M:2/2] G,4 D,2 C,2 | B,,2 B,,2 F,2 G,2 | F,4 B,4 | E,2 A,2 D,2 G,2 | (=C,B,,) G,,2 D,4 | %10
 G,4 G,2 A,2 | B,2 E,2 (A,,=C, B,,2) | E,8 |] %13

